src/cmd/lc_smallcaps.svg

<?xml version="1.0" encoding="UTF-8" standalone="no"?>
<svg
   xmlns:dc="http://purl.org/dc/elements/1.1/"
   xmlns:cc="http://creativecommons.org/ns#"
   xmlns:rdf="http://www.w3.org/1999/02/22-rdf-syntax-ns#"
   xmlns:svg="http://www.w3.org/2000/svg"
   xmlns="http://www.w3.org/2000/svg"
   xmlns:sodipodi="http://sodipodi.sourceforge.net/DTD/sodipodi-0.dtd"
   xmlns:inkscape="http://www.inkscape.org/namespaces/inkscape"
   viewBox="0 0 24 24"
   version="1.1"
   id="svg6"
   sodipodi:docname="lc_smallcaps.svg"
   inkscape:version="0.92.5 (2060ec1f9f, 2020-04-08)"
   inkscape:export-filename="/home/jupiter007/Libreoffice yaru theme fullcolor/build/cmd/lc_smallcaps.png"
   inkscape:export-xdpi="96"
   inkscape:export-ydpi="96">
  <metadata
     id="metadata12">
    <rdf:RDF>
      <cc:Work
         rdf:about="">
        <dc:format>image/svg+xml</dc:format>
        <dc:type
           rdf:resource="http://purl.org/dc/dcmitype/StillImage" />
      </cc:Work>
    </rdf:RDF>
  </metadata>
  <defs
     id="defs10" />
  <sodipodi:namedview
     pagecolor="#ffffff"
     bordercolor="#666666"
     borderopacity="1"
     objecttolerance="10"
     gridtolerance="10"
     guidetolerance="10"
     inkscape:pageopacity="0"
     inkscape:pageshadow="2"
     inkscape:window-width="1920"
     inkscape:window-height="1011"
     id="namedview8"
     showgrid="true"
     inkscape:zoom="27.812867"
     inkscape:cx="2.4282509"
     inkscape:cy="10.611969"
     inkscape:window-x="1920"
     inkscape:window-y="32"
     inkscape:window-maximized="1"
     inkscape:current-layer="svg6">
    <inkscape:grid
       type="xygrid"
       id="grid832" />
  </sodipodi:namedview>
  <path
     style="color:#000000;font-style:normal;font-variant:normal;font-weight:normal;font-stretch:normal;font-size:medium;line-height:normal;font-family:sans-serif;font-variant-ligatures:normal;font-variant-position:normal;font-variant-caps:normal;font-variant-numeric:normal;font-variant-alternates:normal;font-feature-settings:normal;text-indent:0;text-align:start;text-decoration:none;text-decoration-line:none;text-decoration-style:solid;text-decoration-color:#000000;letter-spacing:normal;word-spacing:normal;text-transform:none;writing-mode:lr-tb;direction:ltr;text-orientation:mixed;dominant-baseline:auto;baseline-shift:baseline;text-anchor:start;white-space:normal;shape-padding:0;clip-rule:nonzero;display:inline;overflow:visible;visibility:visible;opacity:0.7;isolation:auto;mix-blend-mode:normal;color-interpolation:sRGB;color-interpolation-filters:linearRGB;solid-color:#000000;solid-opacity:1;vector-effect:none;fill:#000000;fill-opacity:1;fill-rule:evenodd;stroke:#000000;stroke-width:2;stroke-linecap:butt;stroke-linejoin:round;stroke-miterlimit:4;stroke-dasharray:none;stroke-dashoffset:0;stroke-opacity:1;color-rendering:auto;image-rendering:auto;shape-rendering:auto;text-rendering:auto;enable-background:accumulate"
     d="M 6 9 L 1.8261719 21 L 2.8339844 21 L 3.8339844 21 L 4.8339844 18 L 9.171875 18 L 10.171875 21 L 11.027344 21 L 11.171875 21 L 12.171875 21 L 7.9414062 9 L 7.8339844 9 L 6.171875 9 L 6 9 z M 7.0039062 11.492188 L 8.5058594 16 L 5.5019531 16 L 7.0039062 11.492188 z M 14 12 L 14 21 L 15 21 L 19.5 21 C 20.880714 21.000005 22.000005 19.880714 22 18.5 C 21.9988 17.454831 21.347463 16.520743 20.367188 16.158203 C 20.773833 15.701469 20.999 15.111527 21 14.5 C 21 13.119288 19.880712 12 18.5 12 L 15 12 L 14 12 z "
     id="path859" />
  <path
     style="color:#000000;font-style:normal;font-variant:normal;font-weight:normal;font-stretch:normal;font-size:medium;line-height:normal;font-family:sans-serif;font-variant-ligatures:normal;font-variant-position:normal;font-variant-caps:normal;font-variant-numeric:normal;font-variant-alternates:normal;font-feature-settings:normal;text-indent:0;text-align:start;text-decoration:none;text-decoration-line:none;text-decoration-style:solid;text-decoration-color:#000000;letter-spacing:normal;word-spacing:normal;text-transform:none;writing-mode:lr-tb;direction:ltr;text-orientation:mixed;dominant-baseline:auto;baseline-shift:baseline;text-anchor:start;white-space:normal;shape-padding:0;clip-rule:nonzero;display:inline;overflow:visible;visibility:visible;opacity:1;isolation:auto;mix-blend-mode:normal;color-interpolation:sRGB;color-interpolation-filters:linearRGB;solid-color:#000000;solid-opacity:1;vector-effect:none;fill:#ffffff;fill-opacity:1;fill-rule:evenodd;stroke:none;stroke-width:2;stroke-linecap:butt;stroke-linejoin:miter;stroke-miterlimit:4;stroke-dasharray:none;stroke-dashoffset:0;stroke-opacity:1;color-rendering:auto;image-rendering:auto;shape-rendering:auto;text-rendering:auto;enable-background:accumulate"
     d="m 14,12 h 1 3.5 c 1.380712,0 2.5,1.119288 2.5,2.5 -0.001,0.611527 -0.226167,1.201469 -0.632812,1.658203 C 21.347464,16.520743 21.9988,17.454831 22,18.5 c 5e-6,1.380714 -1.119286,2.500005 -2.5,2.5 H 15 14 Z m 2,2 h 2.5 c 0.287987,0 0.5,0.31802 0.5,0.75 0,0.431981 -0.212013,0.75 -0.5,0.75 H 16 Z m 0,3.5 h 3.5 c 0.287987,0 0.5,0.31802 0.5,0.75 C 20,18.68198 19.787987,19 19.5,19 H 16 Z"
     id="path854"
     inkscape:connector-curvature="0"
     sodipodi:nodetypes="ccsccccccccssscccssscc" />
  <path
     d="M 6,9 1.826172,21 h 1.007813 1 l 1,-3 h 4.33789 l 1,3 h 0.85547 0.144531 1 L 7.941406,9 H 7.833985 6.171875 Z M 7.003906,11.492188 8.50586,16 H 5.501953 Z"
     id="path881"
     inkscape:connector-curvature="0"
     style="fill:#ffffff" />
  <path
     style="opacity:0.7;fill:#000000;fill-opacity:1;stroke:#000000;stroke-width:2;stroke-linejoin:round;stroke-miterlimit:4;stroke-dasharray:none"
     inkscape:connector-curvature="0"
     id="path840"
     d="m 15,3.0000667 3,4 3,-4 z" />
  <path
     d="m 15,3.0000667 3,4 3,-4 z"
     id="path4-3"
     inkscape:connector-curvature="0"
     style="fill:#aee3f8;fill-opacity:1" />
</svg>

<?xml version="1.0" encoding="UTF-8" standalone="no"?>
<svg
   xmlns:dc="http://purl.org/dc/elements/1.1/"
   xmlns:cc="http://creativecommons.org/ns#"
   xmlns:rdf="http://www.w3.org/1999/02/22-rdf-syntax-ns#"
   xmlns:svg="http://www.w3.org/2000/svg"
   xmlns="http://www.w3.org/2000/svg"
   xmlns:xlink="http://www.w3.org/1999/xlink"
   xmlns:sodipodi="http://sodipodi.sourceforge.net/DTD/sodipodi-0.dtd"
   xmlns:inkscape="http://www.inkscape.org/namespaces/inkscape"
   viewBox="0 0 24 24"
   version="1.1"
   id="svg6"
   sodipodi:docname="lc_smallcaps.svg"
   inkscape:version="1.0.1 (3bc2e813f5, 2020-09-07)"
   inkscape:export-filename="/home/jupiter007/Libreoffice yaru theme fullcolor/build/cmd/lc_smallcaps.png"
   inkscape:export-xdpi="96"
   inkscape:export-ydpi="96">
  <metadata
     id="metadata12">
    <rdf:RDF>
      <cc:Work
         rdf:about="">
        <dc:format>image/svg+xml</dc:format>
        <dc:type
           rdf:resource="http://purl.org/dc/dcmitype/StillImage" />
        <dc:title></dc:title>
      </cc:Work>
    </rdf:RDF>
  </metadata>
  <defs
     id="defs10">
    <linearGradient
       inkscape:collect="always"
       id="linearGradient841">
      <stop
         style="stop-color:#151515;stop-opacity:1"
         offset="0"
         id="stop837" />
      <stop
         style="stop-color:#4d4d4d;stop-opacity:1"
         offset="1"
         id="stop839" />
    </linearGradient>
    <linearGradient
       inkscape:collect="always"
       xlink:href="#linearGradient841"
       id="linearGradient843"
       x1="6"
       y1="9"
       x2="6"
       y2="21"
       gradientUnits="userSpaceOnUse" />
  </defs>
  <sodipodi:namedview
     pagecolor="#808080"
     bordercolor="#666666"
     borderopacity="1"
     objecttolerance="10"
     gridtolerance="10"
     guidetolerance="10"
     inkscape:pageopacity="0"
     inkscape:pageshadow="2"
     inkscape:window-width="1920"
     inkscape:window-height="1043"
     id="namedview8"
     showgrid="true"
     inkscape:zoom="39.333334"
     inkscape:cx="16.815005"
     inkscape:cy="13.297959"
     inkscape:window-x="1920"
     inkscape:window-y="0"
     inkscape:window-maximized="1"
     inkscape:current-layer="svg6"
     inkscape:document-rotation="0">
    <inkscape:grid
       type="xygrid"
       id="grid832" />
  </sodipodi:namedview>
  <path
     style="color:#000000;font-style:normal;font-variant:normal;font-weight:normal;font-stretch:normal;font-size:medium;line-height:normal;font-family:sans-serif;font-variant-ligatures:normal;font-variant-position:normal;font-variant-caps:normal;font-variant-numeric:normal;font-variant-alternates:normal;font-feature-settings:normal;text-indent:0;text-align:start;text-decoration:none;text-decoration-line:none;text-decoration-style:solid;text-decoration-color:#000000;letter-spacing:normal;word-spacing:normal;text-transform:none;writing-mode:lr-tb;direction:ltr;text-orientation:mixed;dominant-baseline:auto;baseline-shift:baseline;text-anchor:start;white-space:normal;shape-padding:0;clip-rule:nonzero;display:inline;overflow:visible;visibility:visible;opacity:1;isolation:auto;mix-blend-mode:normal;color-interpolation:sRGB;color-interpolation-filters:linearRGB;solid-color:#000000;solid-opacity:1;vector-effect:none;fill:#ffffff;fill-opacity:1;fill-rule:evenodd;stroke:#ffffff;stroke-width:2;stroke-linecap:butt;stroke-linejoin:round;stroke-miterlimit:4;stroke-dasharray:none;stroke-dashoffset:0;stroke-opacity:1;color-rendering:auto;image-rendering:auto;shape-rendering:auto;text-rendering:auto;enable-background:accumulate"
     d="M 6 9 L 1.8261719 21 L 2.8339844 21 L 3.8339844 21 L 4.8339844 18 L 9.171875 18 L 10.171875 21 L 11.027344 21 L 11.171875 21 L 12.171875 21 L 7.9414062 9 L 7.8339844 9 L 6.171875 9 L 6 9 z M 7.0039062 11.492188 L 8.5058594 16 L 5.5019531 16 L 7.0039062 11.492188 z M 14 12 L 14 21 L 15 21 L 19.5 21 C 20.880714 21.000005 22.000005 19.880714 22 18.5 C 21.9988 17.454831 21.347463 16.520743 20.367188 16.158203 C 20.773833 15.701469 20.999 15.111527 21 14.5 C 21 13.119288 19.880712 12 18.5 12 L 15 12 L 14 12 z "
     id="path859" />
  <path
     id="path854"
     style="color:#000000;font-style:normal;font-variant:normal;font-weight:normal;font-stretch:normal;font-size:medium;line-height:normal;font-family:sans-serif;font-variant-ligatures:normal;font-variant-position:normal;font-variant-caps:normal;font-variant-numeric:normal;font-variant-alternates:normal;font-feature-settings:normal;text-indent:0;text-align:start;text-decoration:none;text-decoration-line:none;text-decoration-style:solid;text-decoration-color:#000000;letter-spacing:normal;word-spacing:normal;text-transform:none;writing-mode:lr-tb;direction:ltr;text-orientation:mixed;dominant-baseline:auto;baseline-shift:baseline;text-anchor:start;white-space:normal;shape-padding:0;clip-rule:nonzero;display:inline;overflow:visible;visibility:visible;opacity:1;isolation:auto;mix-blend-mode:normal;color-interpolation:sRGB;color-interpolation-filters:linearRGB;solid-color:#000000;solid-opacity:1;vector-effect:none;fill:url(#linearGradient843);fill-opacity:1;fill-rule:evenodd;stroke:none;stroke-width:2;stroke-linecap:butt;stroke-linejoin:miter;stroke-miterlimit:4;stroke-dasharray:none;stroke-dashoffset:0;stroke-opacity:1;color-rendering:auto;image-rendering:auto;shape-rendering:auto;text-rendering:auto;enable-background:accumulate"
     d="M 6 9 L 1.8261719 21 L 2.8339844 21 L 3.8339844 21 L 4.8339844 18 L 9.171875 18 L 10.171875 21 L 11.027344 21 L 11.171875 21 L 12.171875 21 L 7.9414062 9 L 7.8339844 9 L 6.171875 9 L 6 9 z M 7.0039062 11.492188 L 8.5058594 16 L 5.5019531 16 L 7.0039062 11.492188 z M 14 12 L 14 21 L 15 21 L 19.5 21 C 20.880714 21.000005 22.000005 19.880714 22 18.5 C 21.9988 17.454831 21.347463 16.520743 20.367188 16.158203 C 20.773833 15.701469 20.999 15.111527 21 14.5 C 21 13.119288 19.880712 12 18.5 12 L 15 12 L 14 12 z M 16 14 L 18.5 14 C 18.787987 14 19 14.31802 19 14.75 C 19 15.181981 18.787987 15.5 18.5 15.5 L 16 15.5 L 16 14 z M 16 17.5 L 19.5 17.5 C 19.787987 17.5 20 17.81802 20 18.25 C 20 18.68198 19.787987 19 19.5 19 L 16 19 L 16 17.5 z " />
  <path
     d="m 15,3.0000667 3,4 3,-4 z"
     id="path4-3"
     inkscape:connector-curvature="0"
     style="fill:#e95420;fill-opacity:1" />
</svg>
